X: 40772
T: Tourist, The
R: hornpipe
M: 4/4
K: Dmajor
de|:fAAB ABde|fAAB A2 ef|gBBg BBgB|acca BBgB|
fAAB ABde|fAAB A2 ef|gBBa ccBc|d2 dc d2:|
de|:fAAf fede|fedB A2ef|gBBg BBgB|acca BBgB|
fAAf fede|fedB A2ef|gBBa ccBc|d2 dc d2:|
de|:fAAf AAfA|fAdf AAef|gBBg BBgB|acca BBgB|
fAAf AAfA|fAdf AAef|gBBa ccBc|d2 dc d2:|
de|:fAAa AAfA|AaaA fAdf|gBBg BBgB|acca BBgB|
fAAa AAfA|AaaA fAdf|gBBa ccBc|d2 dc d2:|
de|:fAAf AAfA|fAAf AAfA|gBBg BBgB|acca BBgB|
fAAf AAfA|fAAf AAfA|gBBa ccBc|d2 dc d2:|

